X:1
T:Title
%%score { ( 1 4 ) | ( 2 3 ) }
L:1/8
M:6/8
K:Ab
V:1 treble nm="Grand Piano"
V:4 treble 
V:2 bass 
V:3 bass 
V:1
 z3 z2[Q:1/4=92] E | [CE] c2 [DB]2 c | [DB]3 [CA]3 | [FA]GF [FA]2 F | [CE]3- [CE]2 E | %5
 [CE]FG [CA]Bc | B3 F2 F | [CE]=DE [Ec]2 B |[M:5/8] [CA]-[CA]- [CA]3 |[M:1/8] [CE] | %10
[M:3/4] [CE] [Ec]2 B2 c | B3 A3 | [FA][EG] [DF] [FA]2 [DF] | [CE]4- [CE][CE] | %14
 [CE][DF] [DG][CA] [DB][Ec] | c4 G[Gd]/[Gd]/ | .c2 z =d z2 | [Ge]6 |[M:1/8] [Ge] | %19
[M:3/4] z2 z c z2 | [FA]3 F2 F |[M:7/8] EAc B3 [CA] |[M:5/8] [CA]-[CA]- [CA]3 |[M:1/8] [Ge] | %24
[M:3/4] z2 z c z2 | [FA]3 F2 F |[M:7/8] EAc B3 [CA] |[M:5/8] [CA]-[CA]- [CA]3 |] %28
V:2
 z3 z2 C | z E2 z2 E | A,3 A,3 | z ED z2 D | z3 z2 C | z DD z DE | [D,D]3 D2 D | z _C=C z2 =D | %8
[M:5/8] A,,-A,,- A,,3 |[M:1/8] [A,,A,] |[M:3/4] [A,,A,] [A,,A,]2 [E,G,D]2 [E,G,E] | [A,D]3 [A,C]3 | %12
 [D,A,][D,A,] [D,A,] [D,A,]2 [D,A,] | [A,,A,]4- [A,,A,][A,,A,] | %14
 [A,,A,][A,,A,] [A,,A,][A,,A,] [A,,A,][A,,A,] | [E,A,E]3 [G,E] B,[E,B,]/[E,B,]/ | %16
 [F,A,]2 [F,A,F] [B,,B,]2 [B,,B,] | [E,B,]6 |[M:1/8] [E,D] |[M:3/4][K:treble] .C2[K:bass] z2 z2 | %20
 [D,A,]3 [D,A,D]2 [D,A,D] |[M:7/8] [A,C] z z z z z2 |[M:5/8] [A,,A,]-[A,,A,]- [A,,A,]3 | %23
[M:1/8] [E,D] |[M:3/4][K:treble] .C2[K:bass] z2 z2 | [D,A,]3 [D,A,D]2 [D,A,D] | %26
[M:7/8] [A,C] z z z z z2 |[M:5/8] [A,,A,]-[A,,A,]- [A,,A,]3 |] %28
V:3
 x6 | A,,3 E,3 | x6 | D,3 D,3 | A,,6 | A,,3 A,,3 | z3 D,3 | E,3 E,3 |[M:5/8] x5 |[M:1/8] x | %10
[M:3/4] x6 | x6 | x6 | x6 | x6 | z2 z .E,3 | x6 | x6 |[M:1/8] x | %19
[M:3/4][K:treble] [A,A]-[A,B,A][K:bass] [A,E][A,,A,] [B,,G,][C,A,] | x6 | %21
[M:7/8] E,-[E,CE][E,A,E] [E,G,D]3 [A,,A,] |[M:5/8] x5 |[M:1/8] x | %24
[M:3/4][K:treble] [A,A]-[A,B,A][K:bass] [A,E][A,,A,] [B,,G,][C,A,] | x6 | %26
[M:7/8] E,-[E,CE][E,A,E] [E,G,D]3 [A,,A,] |[M:5/8] x5 |] %28
V:4
 x6 | x6 | x6 | x6 | x6 | x6 | x6 | x6 |[M:5/8] x5 |[M:1/8] x |[M:3/4] x6 | x6 | x6 | x6 | x6 | %15
 z2 z .B3 | A-[AB] cF- [Fc][A=d] | x6 |[M:1/8] x |[M:3/4] ed cE- [EB][EA] | x6 |[M:7/8] x7 | %22
[M:5/8] x5 |[M:1/8] x |[M:3/4] ed cE- [EB][EA] | x6 |[M:7/8] x7 |[M:5/8] x5 |] %28

